img/icons/Group 2.svg

<svg width="52" height="52" viewBox="0 0 52 52" fill="none" xmlns="http://www.w3.org/2000/svg">
<path d="M51.2125 32.3547C47.7056 46.3789 33.6779 54.7057 19.6502 51.1997C5.62255 47.6936 -2.70641 33.6695 0.800517 19.6453C4.30744 5.62114 18.3351 -2.70573 32.3628 0.800316C46.1713 4.30636 54.7195 18.3305 51.2125 32.3547Z" fill="#5DA4E6"/>
<path d="M29.3418 16H20.2713L19.5217 20.1481H27.7676C31.8156 20.1481 33.015 21.6296 32.9401 24C32.9401 25.2593 32.4153 27.3333 32.1155 28C31.5158 29.7778 30.2414 31.8519 25.4438 31.8519H17.4977L16.748 36H25.8186C29.042 36 30.3913 35.6296 31.8156 34.963C35.039 33.4815 36.9131 30.3704 37.6628 26.2963C38.7872 20.2963 37.3629 16 29.3418 16Z" fill="white"/>
<path d="M16.2984 23.926C13.8996 23.926 13.5997 25.4816 13.3748 26.3705C13.075 27.5556 13 28.0742 13 28.0742H22.2954C24.6942 28.0742 24.9941 26.5186 25.219 25.6297C25.5188 24.4445 25.5938 23.926 25.5938 23.926H16.2984Z" fill="white"/>
</svg>

<svg width="52" height="52" viewBox="0 0 52 52" fill="none" xmlns="http://www.w3.org/2000/svg"><path d="M51.212 32.355C47.706 46.379 33.678 54.705 19.65 51.2 5.623 47.694-2.706 33.67.8 19.645 4.308 5.621 18.336-2.705 32.364.8c13.808 3.506 22.356 17.53 18.85 31.555z" fill="#5DA4E6"/><path d="M29.342 16h-9.07l-.75 4.148h8.246c4.048 0 5.247 1.482 5.172 3.852 0 1.26-.525 3.333-.825 4-.6 1.778-1.874 3.852-6.671 3.852h-7.946L16.748 36h9.07c3.224 0 4.573-.37 5.998-1.037 3.223-1.482 5.097-4.593 5.847-8.667 1.124-6-.3-10.296-8.321-10.296z" fill="#fff"/><path d="M16.298 23.926c-2.398 0-2.698 1.556-2.923 2.445-.3 1.185-.375 1.703-.375 1.703h9.295c2.4 0 2.7-1.555 2.924-2.444.3-1.185.375-1.704.375-1.704h-9.296z" fill="#fff"/></svg>
